public/assets/trusts-llama/boc.svg

<svg fill="none" height="34" viewBox="0 0 134 34" width="134" xmlns="http://www.w3.org/2000/svg"><g fill="#fff"><path d="m5.5908 11.8696h1.75398v11.1617h-1.75398zm2.98974 0h1.75396v11.1617h-1.74399zm2.98976 0h1.754v11.1617h-1.7441zm2.9897 0h1.754v11.1617h-1.744zm8.9692 0h1.754v11.1617h-1.744zm-2.9897 0h1.754v11.1617h-1.7441zm-2.9898 0h1.754v11.1617h-1.744zm10.0456 17.5497c.3426-.7911.5546-1.6325.6278-2.4914 0-.6877 0-.9069-.7973-1.166 0 0-.0897 0-.0897-.1694-.0013-.0184.001-.0368.0068-.0542.0057-.0175.0149-.0336.027-.0475.012-.0139.0267-.0253.0431-.0335.0165-.0082.0344-.0131.0527-.0143 0-.0997 0-.2791-.5581-.2791s-.5481.1794-.5581.2791c.0184.0012.0363.0061.0527.0143.0165.0082.0311.0196.0432.0335.012.0139.0212.03.027.0475.0058.0174.008.0358.0067.0542 0 .1395-.0897.1694-.0897.1694-.8471.2591-.8272.4684-.7973 1.166.0794.8547.2913 1.6918.6279 2.4814h-3.9066v1.4052h-5.2221v-5.3616h-3.2887v5.4114h-5.22206v-1.4051h-3.98631c.3377-.7893.54955-1.6266.62784-2.4815 0-.6876.04983-.9069-.79726-1.166 0 0-.08969 0-.08969-.1694-.00136-.0183.00092-.0368.0067-.0542.00579-.0175.01496-.0336.027-.0475s.02671-.0253.04315-.0335c.01645-.0082.03436-.013.0527-.0143 0 0 0-.279-.55808-.279-.55809 0-.55809.1793-.55809.279.01834.0013.03625.0061.0527.0143s.03111.0196.04315.0335.02122.03.027.0475c.00579.0174.00806.0359.00671.0542 0 .1395-.08969.1694-.08969.1694-.8471.2591-.83713.4684-.79727 1.166.07427.8556.28628 1.6935.62785 2.4815h-3.21895v3.2388h30.8939v-3.2388h-3.2986zm-7.5541-22.82158-4.5942-1.64435-4.5943 1.64435v.58798h9.1885zm-20.0412-5.790103v22.313283h1.58456l.91685-.9467v-11.0221h1.09624v-3.92654h5.63067v-1.62441l5.08258-1.91343v-.68764h2.2522v.67768l5.0826 1.91342v1.63438h5.6307v3.92654h1.1062v11.0221l.9168.9467h1.5945v-22.313283z"/><path d="m37.9795 32.1103h-1.6543v-6.8564h1.6543c1.5248 0 2.2224.6976 2.2224 1.7739.003.3081-.0919.6093-.271.86s-.4331.4381-.7256.5352c.3695.0873.6975.2997.9282.6012.2307.3016.3499.6737.3375 1.0531 0 1.3952-.9966 1.9932-2.5413 1.9932m0-6.0293h-.7574v2.0928h.6976c.8869 0 1.3952-.3787 1.3952-1.0763s-.3986-.9866-1.2856-.9866zm0 2.7904h-.7574v2.4117h.7574c.9966 0 1.5248-.3787 1.5248-1.2058 0-.8272-.4585-1.166-1.475-1.166z"/><path d="m46.6699 32.17-.8272-2.0928h-2.7904l-.7574 1.9931h-.9966l2.6609-6.8564h.9966l2.6011 6.7269-.887.1893m-2.2224-5.8001-1.0763 2.8602h2.1626z"/><path d="m53.4664 32.1103-3.7472-5.3416v5.3416h-.8271v-6.8564h.8271l3.6176 5.1423v-5.1423h.8272v6.8564z"/><path d="m59.7946 31.9808 1.9931.6976-.1893.9966-3.797-1.5646c-.6971-.2384-1.2955-.7014-1.7013-1.3164-.4058-.6149-.5961-1.3472-.541-2.0819 0-2.0928 1.2657-3.5578 3.1691-3.5578 1.9035 0 3.1094 1.455 3.1094 3.5578.0662.6936-.0981 1.3898-.4674 1.9807s-.9231 1.0436-1.5756 1.288zm-.9966-5.9794c-1.3354 0-2.1626.9966-2.1626 2.6608 0 1.6643.8272 2.7307 2.1626 2.7307s2.0928-1.0664 2.0928-2.6808c0-1.6145-.8271-2.7007-2.1626-2.7007z"/><path d="m65.9033 32.2299c-.361.0213-.7224-.0353-1.0596-.1659-.3372-.1307-.6423-.3324-.8947-.5914s-.4461-.5693-.568-.9098c-.1219-.3404-.1692-.7032-.1385-1.0635v-4.2454h.9965v4.1258c0 1.2059.5083 1.9932 1.7142 1.9932 1.2058 0 1.7141-.6976 1.7141-1.9932v-4.1856h.9966v4.1856c.0455.3695.0097.7444-.1051 1.0985-.1147.3542-.3056.6789-.5591.9514-.2536.2726-.5637.4863-.9086.6263s-.7163.2028-1.0881.184"/><path d="m70.478 32.1103v-6.8564h3.6774v.887h-2.7904v1.9632h2.1526l.1295.8272h-2.2821v2.2821h2.8502v.8969z"/><path d="m80.374 32.1103h-1.9931v-6.8564h1.9931c2.3519 0 3.6176 1.3952 3.6176 3.4282s-1.2756 3.4282-3.6176 3.4282zm.0598-6.0292h-1.0763v5.1423h1.0763c.3555.0476.7171.0136 1.0574-.0994.3404-.113.6505-.302.907-.5526.2564-.2507.4524-.5565.5731-.8942s.1629-.6984.1234-1.0549c.0188-.3494-.038-.6989-.1667-1.0243-.1286-.3255-.3259-.6194-.5786-.8616-.2526-.2422-.5545-.4271-.8851-.5419s-.6821-.1569-1.0305-.1234z"/><path d="m87.6992 32.2299c-.361.0213-.7224-.0353-1.0596-.1659-.3372-.1307-.6423-.3324-.8947-.5914s-.4461-.5693-.568-.9098c-.1219-.3404-.1692-.7032-.1385-1.0635v-4.2454h.9965v4.1258c0 1.2059.5083 1.9932 1.7142 1.9932 1.2058 0 1.7141-.6976 1.7141-1.9932v-4.1856h.9965v4.1856c.0461.3776.0072.7607-.1139 1.1213-.121.3606-.3212.6896-.5859.9628-.2646.2733-.587.4839-.9436.6164-.3565.1326-.7382.1837-1.1171.1497z"/><path d="m97.256 32.2298c-1.9034 0-3.1691-1.3952-3.1691-3.5578 0-2.1625 1.2657-3.5578 3.1691-3.5578.7084-.0311 1.4077.1682 1.9932.5681l-.1296.9966c-.5236-.417-1.1743-.6421-1.8436-.6378-1.3952 0-2.2224.9965-2.2224 2.6608s.8272 2.6609 2.2224 2.6609c.6939-.0171 1.3628-.2623 1.9034-.6976l.1296.8869c-.5682.448-1.2696.6935-1.9932.6976"/><path d="m105.378 32.17-.827-2.0928h-2.79l-.758 1.9931h-.996l2.661-6.8564h.996l2.661 6.7269-.996.1893m-2.223-5.8399-1.076 2.8601h2.222z"/><path d="m112.235 32.1103-3.747-5.3416v5.3416h-.887v-6.8564h.827l3.617 5.1423v-5.1423h.887v6.8564z"/><path d="m119.53 32.17-.827-2.0928h-2.791l-.757 1.9931h-.997l2.661-6.8564h.997l2.601 6.7269-.887.1893m-2.223-5.8399-1.076 2.8601h2.163z"/><path d="m123.725 32.1103h-1.993v-6.8564h1.993c2.352 0 3.618 1.3952 3.618 3.4282s-1.266 3.4282-3.618 3.4282zm.06-6.0292h-1.076v5.1423h1.076c.353.0477.712.0133 1.049-.1005.337-.1139.644-.3041.896-.5558.251-.2518.442-.5583.555-.8956.114-.3373.149-.6964.101-1.0492.026-.346-.023-.6936-.146-1.0185-.122-.3248-.313-.619-.561-.862-.248-.2431-.546-.429-.873-.5448-.327-.1159-.676-.1588-1.021-.1259z"/><path d="m133.053 32.17-.827-2.0928h-2.79l-.758 1.9931h-.996l2.661-6.8564h.996l2.661 6.7269-.997.1893m-2.222-5.8399-1.076 2.8601h2.162z"/><path d="m37.9795 21.7359h-1.6543v-6.8963h1.6543c1.5248 0 2.2224.6976 2.2224 1.7739.003.3081-.0919.6093-.271.86s-.4331.4381-.7256.5352c.3695.0872.6975.2997.9282.6012.2307.3016.3499.6737.3375 1.0531 0 1.3952-.9966 1.9932-2.5413 1.9932m0-6.0293h-.7574v2.1227h.6976c.8869 0 1.3952-.3787 1.3952-1.0763s-.3986-1.0065-1.2856-1.0065zm0 2.7904h-.7574v2.4117h.7574c.9966 0 1.5248-.3787 1.5248-1.2058 0-.8272-.4585-1.166-1.475-1.166z"/><path d="m46.6699 21.7358-.8272-2.1326h-2.7904l-.7574 2.1326h-.9966l2.6609-6.8564h.9966l2.6011 6.7269-.887.1893m-2.2224-5.8698-1.0763 2.8203h2.1626z"/><path d="m53.4664 21.696-3.7472-5.3316v5.3316h-.8271v-6.8564h.8271l3.6176 5.1423v-5.1423h.8272v6.8564z"/><path d="m60.253 21.7558-3.2389-3.5478v3.488h-.9467v-6.8564h.9467v3.0495l2.92-3.0495h1.0863l-2.9898 3.1791 3.1791 3.488z"/><path d="m67.2392 21.8255c-1.9035 0-3.1093-1.3952-3.1093-3.5578s1.2058-3.5079 3.1691-3.5079 3.1093 1.3952 3.1093 3.5577c0 2.1626-1.2058 3.5578-3.1691 3.5578m0-6.2784c-1.3354 0-2.1626 1.0763-2.1626 2.6608 0 1.5846.8272 2.6609 2.1626 2.6609s2.1626-1.0763 2.1626-2.6609c0-1.5845-.7674-2.7206-2.1626-2.7206z"/><path d="m72.9494 15.6668v2.0928h2.033l.1894.8869h-2.2224v3.0495h-.9567v-6.8564h3.5578v.8272z"/><path d="m82.0182 21.8257c-1.9034 0-3.1691-1.3952-3.1691-3.5578 0-2.1625 1.2657-3.5079 3.1691-3.5079.7084-.0311 1.4077.1682 1.9932.568l-.1296.9966c-.5236-.4169-1.1743-.642-1.8436-.6378-1.3952 0-2.2224 1.0763-2.2224 2.6609 0 1.5845.8272 2.6608 2.2224 2.6608.6939-.0171 1.3628-.2622 1.9034-.6976l.1296.887c-.5782.4294-1.2734.6727-1.9932.6976"/><path d="m90.1503 21.7358-.8272-2.0928h-2.7904l-.8271 2.0928h-.9966l2.6608-6.8564h.9966l2.6011 6.7269-.8272.1893m-2.2223-5.8399-1.0763 2.7904h2.1625z"/><path d="m96.9368 21.696-3.7471-5.3316v5.3316h-.887v-6.8564h.8272l3.6774 5.1423v-5.1423h.8271v6.8564z"/><path d="m104.302 21.7359-.827-2.0928h-2.821l-.757 1.9931h-.9966l2.7506-6.7966h.997l2.601 6.7269-.887.1893m-2.223-5.8399-1.136 2.8303h2.163z"/><path d="m108.428 21.7359h-1.993v-6.8963h1.993c2.352 0 3.617 1.3952 3.617 3.4282s-1.275 3.4681-3.617 3.4681zm.06-6.0293h-1.077v5.1424h1.077c.352.0477.711.0133 1.049-.1006.337-.1138.644-.304.895-.5558.252-.2517.442-.5582.556-.8955s.148-.6964.101-1.0492c.036-.3497-.006-.703-.124-1.0341-.119-.3311-.309-.6316-.559-.8792s-.551-.4361-.883-.5517-.686-.1553-1.035-.1161z"/><path d="m117.756 21.7358-.827-2.1626h-2.791l-.757 1.9932h-.997l2.701-6.8066h.997l2.66 6.7269-.996.2491m-2.222-5.8399-1.067 2.8502h2.223z"/></g></svg>

<svg xmlns="http://www.w3.org/2000/svg" width="134" height="34" viewBox="0 0 134 34" fill="none">
  <path d="M5.5908 11.8696H7.34478V23.0313H5.5908V11.8696ZM8.58054 11.8696H10.3345V23.0313H8.59051L8.58054 11.8696ZM11.5703 11.8696H13.3243V23.0313H11.5802L11.5703 11.8696ZM14.56 11.8696H16.314V23.0313H14.57L14.56 11.8696ZM23.5292 11.8696H25.2832V23.0313H23.5392L23.5292 11.8696ZM20.5395 11.8696H22.2935V23.0313H20.5494L20.5395 11.8696ZM17.5497 11.8696H19.3037V23.0313H17.5597L17.5497 11.8696ZM27.5953 29.4193C27.9379 28.6282 28.1499 27.7868 28.2231 26.9279C28.2231 26.2402 28.2231 26.021 27.4258 25.7619C27.4258 25.7619 27.3361 25.7619 27.3361 25.5925C27.3348 25.5741 27.3371 25.5557 27.3429 25.5383C27.3486 25.5208 27.3578 25.5047 27.3699 25.4908C27.3819 25.4769 27.3966 25.4655 27.413 25.4573C27.4295 25.4491 27.4474 25.4442 27.4657 25.443C27.4657 25.3433 27.4657 25.1639 26.9076 25.1639C26.3495 25.1639 26.3595 25.3433 26.3495 25.443C26.3679 25.4442 26.3858 25.4491 26.4022 25.4573C26.4187 25.4655 26.4333 25.4769 26.4454 25.4908C26.4574 25.5047 26.4666 25.5208 26.4724 25.5383C26.4782 25.5557 26.4804 25.5741 26.4791 25.5925C26.4791 25.732 26.3894 25.7619 26.3894 25.7619C25.5423 26.021 25.5622 26.2303 25.5921 26.9279C25.6715 27.7826 25.8834 28.6197 26.22 29.4093H22.3134V30.8145H17.0913V25.4529H13.8026V30.8643H8.58054V29.4592H4.59423C4.93193 28.6699 5.14378 27.8326 5.22207 26.9777C5.22207 26.2901 5.2719 26.0708 4.42481 25.8117C4.42481 25.8117 4.33512 25.8117 4.33512 25.6423C4.33376 25.624 4.33604 25.6055 4.34182 25.5881C4.34761 25.5706 4.35678 25.5545 4.36882 25.5406C4.38086 25.5267 4.39553 25.5153 4.41197 25.5071C4.42842 25.4989 4.44633 25.4941 4.46467 25.4928C4.46467 25.4928 4.46467 25.2138 3.90659 25.2138C3.3485 25.2138 3.3485 25.3931 3.3485 25.4928C3.36684 25.4941 3.38475 25.4989 3.4012 25.5071C3.41765 25.5153 3.43231 25.5267 3.44435 25.5406C3.45639 25.5545 3.46557 25.5706 3.47135 25.5881C3.47714 25.6055 3.47941 25.624 3.47806 25.6423C3.47806 25.7818 3.38837 25.8117 3.38837 25.8117C2.54127 26.0708 2.55124 26.2801 2.5911 26.9777C2.66537 27.8333 2.87738 28.6712 3.21895 29.4592H0V32.698H30.8939V29.4592H27.5953V29.4193ZM20.0412 6.59772L15.447 4.95337L10.8527 6.59772V7.1857H20.0412V6.59772ZM0 0.807617V23.1209H1.58456L2.50141 22.1742V11.1521H3.59765V7.22556H9.22832V5.60115L14.3109 3.68772V3.00008H16.5631V3.67776L21.6457 5.59118V7.22556H27.2764V11.1521H28.3826V22.1742L29.2994 23.1209H30.8939V0.807617H0Z" fill="white"/>
  <path d="M37.9795 32.1103H36.3252V25.2539H37.9795C39.5043 25.2539 40.2019 25.9515 40.2019 27.0278C40.2049 27.3359 40.11 27.6371 39.9309 27.8878C39.7518 28.1385 39.4978 28.3259 39.2053 28.423C39.5748 28.5103 39.9028 28.7227 40.1335 29.0242C40.3642 29.3258 40.4834 29.6979 40.471 30.0773C40.471 31.4725 39.4744 32.0705 37.9297 32.0705M37.9297 26.0412H37.1723V28.134H37.8699C38.7568 28.134 39.2651 27.7553 39.2651 27.0577C39.2651 26.3601 38.8665 26.0711 37.9795 26.0711L37.9297 26.0412ZM37.9297 28.8316H37.1723V31.2433H37.9297C38.9263 31.2433 39.4545 30.8646 39.4545 30.0375C39.4545 29.2103 38.996 28.8715 37.9795 28.8715L37.9297 28.8316Z" fill="white"/>
  <path d="M46.6699 32.17L45.8427 30.0772H43.0523L42.2949 32.0703H41.2983L43.9592 25.2139H44.9558L47.5569 31.9408L46.6699 32.1301M44.4475 26.33L43.3712 29.1902H45.5338L44.4475 26.33Z" fill="white"/>
  <path d="M53.4664 32.1103L49.7192 26.7687V32.1103H48.8921V25.2539H49.7192L53.3368 30.3962V25.2539H54.164V32.1103H53.4664Z" fill="white"/>
  <path d="M59.7946 31.9808L61.7877 32.6784L61.5984 33.675L57.8014 32.1104C57.1043 31.872 56.5059 31.409 56.1001 30.794C55.6943 30.1791 55.504 29.4468 55.5591 28.7121C55.5591 26.6193 56.8248 25.1543 58.7282 25.1543C60.6317 25.1543 61.8376 26.6093 61.8376 28.7121C61.9038 29.4057 61.7395 30.1019 61.3702 30.6928C61.0009 31.2837 60.4471 31.7364 59.7946 31.9808ZM58.798 26.0014C57.4626 26.0014 56.6354 26.998 56.6354 28.6622C56.6354 30.3265 57.4626 31.3929 58.798 31.3929C60.1334 31.3929 60.8908 30.3265 60.8908 28.7121C60.8908 27.0976 60.0637 26.0114 58.7282 26.0114L58.798 26.0014Z" fill="white"/>
  <path d="M65.9033 32.2299C65.5423 32.2512 65.1809 32.1946 64.8437 32.064C64.5065 31.9333 64.2014 31.7316 63.949 31.4726C63.6966 31.2136 63.5029 30.9033 63.381 30.5628C63.2591 30.2224 63.2118 29.8596 63.2425 29.4993V25.2539H64.239V29.3797C64.239 30.5856 64.7473 31.3729 65.9532 31.3729C67.159 31.3729 67.6673 30.6753 67.6673 29.3797V25.1941H68.6639V29.3797C68.7094 29.7492 68.6736 30.1241 68.5588 30.4782C68.4441 30.8324 68.2532 31.1571 67.9997 31.4296C67.7461 31.7022 67.436 31.9159 67.0911 32.0559C66.7462 32.1959 66.3748 32.2587 66.003 32.2399" fill="white"/>
  <path d="M70.478 32.1103V25.2539H74.1554V26.1409H71.365V28.1041H73.5176L73.6471 28.9313H71.365V31.2134H74.2152V32.1103H70.478Z" fill="white"/>
  <path d="M80.374 32.1103H78.3809V25.2539H80.374C82.7259 25.2539 83.9916 26.6491 83.9916 28.6821C83.9916 30.7151 82.716 32.1103 80.374 32.1103ZM80.4338 26.0811H79.3575V31.2234H80.4338C80.7893 31.271 81.1509 31.237 81.4912 31.124C81.8316 31.011 82.1417 30.822 82.3982 30.5714C82.6546 30.3207 82.8506 30.0149 82.9713 29.6772C83.092 29.3395 83.1342 28.9788 83.0947 28.6223C83.1135 28.2729 83.0567 27.9234 82.928 27.598C82.7994 27.2725 82.6021 26.9786 82.3494 26.7364C82.0968 26.4942 81.7949 26.3093 81.4643 26.1945C81.1337 26.0797 80.7822 26.0376 80.4338 26.0711V26.0811Z" fill="white"/>
  <path d="M87.6992 32.2299C87.3382 32.2512 86.9768 32.1946 86.6396 32.064C86.3024 31.9333 85.9973 31.7316 85.7449 31.4726C85.4925 31.2136 85.2988 30.9033 85.1769 30.5628C85.055 30.2224 85.0077 29.8596 85.0384 29.4993V25.2539H86.0349V29.3797C86.0349 30.5856 86.5432 31.3729 87.7491 31.3729C88.9549 31.3729 89.4632 30.6753 89.4632 29.3797V25.1941H90.4597V29.3797C90.5058 29.7573 90.4669 30.1404 90.3458 30.501C90.2248 30.8616 90.0246 31.1906 89.7599 31.4638C89.4953 31.7371 89.1729 31.9477 88.8163 32.0802C88.4598 32.2128 88.0781 32.2639 87.6992 32.2299Z" fill="white"/>
  <path d="M97.256 32.2298C95.3526 32.2298 94.0869 30.8346 94.0869 28.672C94.0869 26.5095 95.3526 25.1142 97.256 25.1142C97.9644 25.0831 98.6637 25.2824 99.2492 25.6823L99.1196 26.6789C98.596 26.2619 97.9453 26.0368 97.276 26.0411C95.8808 26.0411 95.0536 27.0376 95.0536 28.7019C95.0536 30.3662 95.8808 31.3628 97.276 31.3628C97.9699 31.3457 98.6388 31.1005 99.1794 30.6652L99.309 31.5521C98.7408 32.0001 98.0394 32.2456 97.3158 32.2497" fill="white"/>
  <path d="M105.378 32.17L104.551 30.0772H101.761L101.003 32.0703H100.007L102.668 25.2139H103.664L106.325 31.9408L105.329 32.1301M103.106 26.2902L102.03 29.1503H104.252L103.106 26.2902Z" fill="white"/>
  <path d="M112.235 32.1103L108.488 26.7687V32.1103H107.601V25.2539H108.428L112.045 30.3962V25.2539H112.932V32.1103H112.235Z" fill="white"/>
  <path d="M119.53 32.17L118.703 30.0772H115.912L115.155 32.0703H114.158L116.819 25.2139H117.816L120.417 31.9408L119.53 32.1301M117.307 26.2902L116.231 29.1503H118.394L117.307 26.2902Z" fill="white"/>
  <path d="M123.725 32.1103H121.732V25.2539H123.725C126.077 25.2539 127.343 26.6491 127.343 28.6821C127.343 30.7151 126.077 32.1103 123.725 32.1103ZM123.785 26.0811H122.709V31.2234H123.785C124.138 31.2711 124.497 31.2367 124.834 31.1229C125.171 31.009 125.478 30.8188 125.73 30.5671C125.981 30.3153 126.172 30.0088 126.285 29.6715C126.399 29.3342 126.434 28.9751 126.386 28.6223C126.412 28.2763 126.363 27.9287 126.24 27.6038C126.118 27.279 125.927 26.9848 125.679 26.7418C125.431 26.4987 125.133 26.3128 124.806 26.197C124.479 26.0811 124.13 26.0382 123.785 26.0711V26.0811Z" fill="white"/>
  <path d="M133.053 32.17L132.226 30.0772H129.436L128.678 32.0703H127.682L130.343 25.2139H131.339L134 31.9408L133.003 32.1301M130.781 26.2902L129.705 29.1503H131.867L130.781 26.2902Z" fill="white"/>
  <path d="M37.9795 21.7359H36.3252V14.8396H37.9795C39.5043 14.8396 40.2019 15.5372 40.2019 16.6135C40.2049 16.9216 40.11 17.2228 39.9309 17.4735C39.7518 17.7242 39.4978 17.9116 39.2053 18.0087C39.5748 18.0959 39.9028 18.3084 40.1335 18.6099C40.3642 18.9115 40.4834 19.2836 40.471 19.663C40.471 21.0582 39.4744 21.6562 37.9297 21.6562M37.9297 15.6269H37.1723V17.7496H37.8699C38.7568 17.7496 39.2651 17.3709 39.2651 16.6733C39.2651 15.9757 38.8665 15.6668 37.9795 15.6668L37.9297 15.6269ZM37.9297 18.4173H37.1723V20.829H37.9297C38.9263 20.829 39.4545 20.4503 39.4545 19.6232C39.4545 18.796 38.996 18.4572 37.9795 18.4572L37.9297 18.4173Z" fill="white"/>
  <path d="M46.6699 21.7358L45.8427 19.6032H43.0523L42.2949 21.7358H41.2983L43.9592 14.8794H44.9558L47.5569 21.6063L46.6699 21.7956M44.4475 15.9258L43.3712 18.7461H45.5338L44.4475 15.9258Z" fill="white"/>
  <path d="M53.4664 21.696L49.7192 16.3644V21.696H48.8921V14.8396H49.7192L53.3368 19.9819V14.8396H54.164V21.696H53.4664Z" fill="white"/>
  <path d="M60.253 21.7558L57.0141 18.208V21.696H56.0674V14.8396H57.0141V17.8891L59.9341 14.8396H61.0204L58.0306 18.0187L61.2097 21.5067L60.253 21.7558Z" fill="white"/>
  <path d="M67.2392 21.8255C65.3357 21.8255 64.1299 20.4303 64.1299 18.2677C64.1299 16.1051 65.3357 14.7598 67.299 14.7598C69.2623 14.7598 70.4083 16.155 70.4083 18.3175C70.4083 20.4801 69.2025 21.8753 67.2392 21.8753M67.2392 15.5969C65.9038 15.5969 65.0766 16.6732 65.0766 18.2577C65.0766 19.8423 65.9038 20.9186 67.2392 20.9186C68.5746 20.9186 69.4018 19.8423 69.4018 18.2577C69.4018 16.6732 68.6344 15.5371 67.2392 15.5371V15.5969Z" fill="white"/>
  <path d="M72.9494 15.6668V17.7596H74.9824L75.1718 18.6465H72.9494V21.696H71.9927V14.8396H75.5505V15.6668H72.9494Z" fill="white"/>
  <path d="M82.0182 21.8257C80.1148 21.8257 78.8491 20.4305 78.8491 18.2679C78.8491 16.1054 80.1148 14.76 82.0182 14.76C82.7266 14.7289 83.4259 14.9282 84.0114 15.328L83.8818 16.3246C83.3582 15.9077 82.7075 15.6826 82.0382 15.6868C80.643 15.6868 79.8158 16.7631 79.8158 18.3477C79.8158 19.9322 80.643 21.0085 82.0382 21.0085C82.7321 20.9914 83.401 20.7463 83.9416 20.3109L84.0712 21.1979C83.493 21.6273 82.7978 21.8706 82.078 21.8955" fill="white"/>
  <path d="M90.1503 21.7358L89.3231 19.643H86.5327L85.7056 21.7358H84.709L87.3698 14.8794H88.3664L90.9675 21.6063L90.1403 21.7956M87.918 15.9557L86.8417 18.7461H89.0042L87.918 15.9557Z" fill="white"/>
  <path d="M96.9368 21.696L93.1897 16.3644V21.696H92.3027V14.8396H93.1299L96.8073 19.9819V14.8396H97.6344V21.696H96.9368Z" fill="white"/>
  <path d="M104.302 21.7359L103.475 19.6431H100.654L99.897 21.6362H98.9004L101.651 14.8396H102.648L105.249 21.5665L104.362 21.7558M102.139 15.9159L101.003 18.7462H103.166L102.139 15.9159Z" fill="white"/>
  <path d="M108.428 21.7359H106.435V14.8396H108.428C110.78 14.8396 112.045 16.2348 112.045 18.2678C112.045 20.3008 110.77 21.7359 108.428 21.7359ZM108.488 15.7066H107.411V20.849H108.488C108.84 20.8967 109.199 20.8623 109.537 20.7484C109.874 20.6346 110.181 20.4444 110.432 20.1926C110.684 19.9409 110.874 19.6344 110.988 19.2971C111.102 18.9598 111.136 18.6007 111.089 18.2479C111.125 17.8982 111.083 17.5449 110.965 17.2138C110.846 16.8827 110.656 16.5822 110.406 16.3346C110.156 16.087 109.855 15.8985 109.523 15.7829C109.191 15.6673 108.837 15.6276 108.488 15.6668V15.7066Z" fill="white"/>
  <path d="M117.756 21.7358L116.929 19.5732H114.138L113.381 21.5664H112.384L115.085 14.7598H116.082L118.742 21.4867L117.746 21.7358M115.524 15.8959L114.457 18.7461H116.68L115.524 15.8959Z" fill="white"/>
</svg>
